projects/flag-game/flags/Jordan.svg

<svg viewBox="0 0 1000 500" xmlns="http://www.w3.org/2000/svg"><path d="m0 0h1000v500h-1000z"/><g fill-rule="evenodd"><path d="m0 166.667969h1000v166.664062h-1000zm0 0" fill="#fff"/><path d="m0 333.332031h1000v166.667969h-1000zm0 0" fill="#007a3d"/><path d="m500 250-500 250v-500zm0 0" fill="#ce1126"/><path d="m187.839844 258.632812-21.304688 1.992188 2.808594 21.285156-14.835938-15.476562-14.835937 15.476562 2.808594-21.285156-21.304688-1.992188 18.335938-11.0625-11.738281-17.957031 20.0625 7.484375 6.671874-20.398437 6.671876 20.398437 20.0625-7.484375-11.734376 17.957031zm0 0" fill="#fff"/></g></svg>

<?xml version="1.0" encoding="UTF-8"?>
<svg xmlns="http://www.w3.org/2000/svg" xmlns:xlink="http://www.w3.org/1999/xlink" viewBox="0 0 1000 500" version="1.1">
<g id="surface635">
<rect x="0" y="0" width="1000" height="500" style="fill:rgb(0%,0%,0%);fill-opacity:1;stroke:none;"/>
<path style=" stroke:none;fill-rule:evenodd;fill:rgb(99.998474%,99.998474%,99.998474%);fill-opacity:1;" d="M 0 166.667969 L 1000 166.667969 L 1000 333.332031 L 0 333.332031 Z M 0 166.667969 "/>
<path style=" stroke:none;fill-rule:evenodd;fill:rgb(0%,47.842407%,23.921204%);fill-opacity:1;" d="M 0 333.332031 L 1000 333.332031 L 1000 500 L 0 500 Z M 0 333.332031 "/>
<path style=" stroke:none;fill-rule:evenodd;fill:rgb(80.783081%,6.666565%,14.901733%);fill-opacity:1;" d="M 500 250 L 0 500 L 0 0 Z M 500 250 "/>
<path style=" stroke:none;fill-rule:evenodd;fill:rgb(99.998474%,99.998474%,99.998474%);fill-opacity:1;" d="M 187.839844 258.632812 L 166.535156 260.625 L 169.34375 281.910156 L 154.507812 266.433594 L 139.671875 281.910156 L 142.480469 260.625 L 121.175781 258.632812 L 139.511719 247.570312 L 127.773438 229.613281 L 147.835938 237.097656 L 154.507812 216.699219 L 161.179688 237.097656 L 181.242188 229.613281 L 169.507812 247.570312 Z M 187.839844 258.632812 "/>
</g>
</svg>
